svg/Pictogram/pictograms-nps-canoe_access.svg

<?xml version="1.0" encoding="UTF-8" standalone="no"?>
<!-- Generator: Adobe Illustrator 13.0.2, SVG Export Plug-In . SVG Version: 6.00 Build 14948)  -->
<svg
   xmlns:dc="http://purl.org/dc/elements/1.1/"
   xmlns:cc="http://creativecommons.org/ns#"
   xmlns:rdf="http://www.w3.org/1999/02/22-rdf-syntax-ns#"
   xmlns:svg="http://www.w3.org/2000/svg"
   xmlns="http://www.w3.org/2000/svg"
   xmlns:sodipodi="http://sodipodi.sourceforge.net/DTD/sodipodi-0.dtd"
   xmlns:inkscape="http://www.inkscape.org/namespaces/inkscape"
   version="1.1"
   id="Layer_1"
   x="0px"
   y="0px"
   width="123.547px"
   height="123.539px"
   viewBox="-0.258 -0.548 123.547 123.539"
   style="enable-background:new -0.258 -0.548 123.547 123.539;"
   xml:space="preserve"
   sodipodi:version="0.32"
   inkscape:version="0.46"
   sodipodi:docname="pictograms-nps-canoe_access-2.svg"
   inkscape:output_extension="org.inkscape.output.svg.inkscape"><metadata
   id="metadata17898"><rdf:RDF><cc:Work
       rdf:about=""><dc:format>image/svg+xml</dc:format><dc:type
         rdf:resource="http://purl.org/dc/dcmitype/StillImage" /></cc:Work></rdf:RDF></metadata><defs
   id="defs17896"><inkscape:perspective
     sodipodi:type="inkscape:persp3d"
     inkscape:vp_x="0 : 61.769501 : 1"
     inkscape:vp_y="0 : 1000 : 0"
     inkscape:vp_z="123.547 : 61.769501 : 1"
     inkscape:persp3d-origin="61.773499 : 41.179667 : 1"
     id="perspective17900" /></defs><sodipodi:namedview
   inkscape:window-height="700"
   inkscape:window-width="727"
   inkscape:pageshadow="2"
   inkscape:pageopacity="0.0"
   guidetolerance="10.0"
   gridtolerance="10.0"
   objecttolerance="10.0"
   borderopacity="1.0"
   bordercolor="#666666"
   pagecolor="#ffffff"
   id="base"
   showgrid="false"
   inkscape:zoom="0.93897473"
   inkscape:cx="168.61768"
   inkscape:cy="47.747459"
   inkscape:window-x="0"
   inkscape:window-y="37"
   inkscape:current-layer="Layer_1" />

<path
   d="M 14.559768,1.5129034 C 7.7844974,1.5129034 2.2639064,7.0209477 2.2639064,13.808765 L 2.2639064,108.18578 C 2.2639064,114.9736 7.7844974,120.48164 14.559768,120.48164 L 108.93678,120.48164 C 115.71205,120.48164 121.23264,114.9736 121.23264,108.18578 L 121.23264,13.808765 C 121.23264,7.0209477 115.71205,1.5129034 108.93678,1.5129034 L 14.559768,1.5129034 z"
   style="fill:#ffffff;fill-opacity:1;fill-rule:nonzero;stroke:none"
   id="path10051" /><path
   d="M 108.93678,122.991 C 117.11729,122.991 123.742,116.36629 123.742,108.18578 L 123.742,13.808765 C 123.742,5.6282531 117.11729,-1.0215497 108.93678,-1.0215497 L 14.559768,-1.0215497 C 6.3792561,-1.0215497 -0.258,5.6282531 -0.258,13.808765 L -0.258,108.18578 C -0.258,116.36629 6.3792561,122.991 14.559768,122.991 L 108.93678,122.991 z"
   style="fill:#000000;fill-opacity:1;fill-rule:nonzero;stroke:none"
   id="path10053" /><path
   d="M 46.340807,33.820908 C 51.648103,33.820908 55.926561,29.517356 55.926561,24.222607 C 55.926561,18.927859 51.648103,14.649401 46.340807,14.649401 C 41.046058,14.649401 36.7676,18.927859 36.7676,24.222607 C 36.7676,29.517356 41.046058,33.820908 46.340807,33.820908"
   style="fill:#ffffff;fill-opacity:1;fill-rule:nonzero;stroke:none"
   id="path10055" /><path
   d="M 10.983931,86.228882 C 13.229808,86.228882 15.387857,85.714464 17.320064,84.836188 C 19.302458,83.920272 21.548335,83.380759 23.869492,83.380759 C 26.203197,83.380759 28.449073,83.920272 30.418921,84.836188 C 32.363674,85.714464 34.53427,86.216336 36.805241,86.216336 C 39.051118,86.216336 41.221714,85.714464 43.15392,84.836188 C 45.136315,83.920272 47.369645,83.380759 49.715896,83.380759 C 52.037053,83.380759 54.270383,83.920272 56.265324,84.836188 C 58.197531,85.714464 60.380674,86.216336 62.626551,86.216336 C 64.884974,86.216336 67.068117,85.714464 68.987777,84.836188 C 70.982718,83.920272 73.216048,83.380759 75.549752,83.380759 C 77.883457,83.380759 80.116787,83.920272 82.099181,84.836188 C 84.043935,85.714464 86.214531,86.216336 88.472954,86.216336 C 90.731378,86.216336 92.889427,85.714464 94.846728,84.836188 C 96.816575,83.920272 99.062452,83.380759 101.38361,83.380759 C 103.37855,83.380759 105.3233,83.757163 107.06731,84.447237 C 109.91543,81.335631 111.67198,77.195188 111.67198,72.665794 C 111.67198,63.00476 103.85533,55.188105 94.219388,55.188105 L 92.262087,55.4014 C 90.116585,64.108878 81.39656,64.472735 81.39656,64.472735 L 41.535384,64.460188 L 38.197935,62.502888 L 46.240433,49.01508 L 55.035738,54.096533 C 60.305393,57.509262 63.040595,52.728932 63.040595,52.728932 L 71.873541,38.337755 C 75.700314,32.08945 67.569989,27.083277 63.755763,33.356676 L 57.582738,43.431755 L 42.902985,35.313977 C 32.727531,29.642824 28.42398,39.040376 28.42398,39.040376 L 16.893473,58.789036 C 14.923625,62.891838 16.680177,64.660937 16.680177,64.660937 L 10.983931,64.64839 L 10.983931,86.228882 z"
   style="fill:#ffffff;fill-opacity:1;fill-rule:nonzero;stroke:none"
   id="path10057" /><path
   d="M 114.29426,105.28747 C 112.04839,105.28747 109.87779,104.7856 107.95813,103.91987 C 105.95064,102.9914 103.72986,102.46444 101.38361,102.46444 C 99.062452,102.46444 96.816575,102.9914 94.846728,103.91987 C 92.889427,104.7856 90.731378,105.28747 88.472954,105.28747 C 86.214531,105.28747 84.043935,104.7856 82.099181,103.91987 C 80.116787,102.9914 77.883457,102.46444 75.549752,102.46444 C 73.216048,102.46444 70.982718,102.9914 68.987777,103.91987 C 67.068117,104.7856 64.884974,105.28747 62.626551,105.28747 C 60.380674,105.28747 58.197531,104.7856 56.265324,103.91987 C 54.270383,102.9914 52.037053,102.46444 49.715896,102.46444 C 47.369645,102.46444 45.136315,102.9914 43.15392,103.91987 C 41.221714,104.7856 39.051118,105.28747 36.805241,105.28747 C 34.53427,105.28747 32.363674,104.7856 30.418921,103.91987 C 28.449073,102.9914 26.203197,102.46444 23.869492,102.46444 C 21.548335,102.46444 19.302458,102.9914 17.320064,103.91987 C 15.387857,104.7856 13.217261,105.28747 10.958837,105.28747 L 10.958837,95.751902 C 13.217261,95.751902 15.387857,95.237483 17.320064,94.371754 C 19.302458,93.455838 21.548335,92.916326 23.869492,92.916326 C 26.203197,92.916326 28.449073,93.455838 30.418921,94.371754 C 32.363674,95.237483 34.53427,95.751902 36.805241,95.751902 C 39.051118,95.751902 41.221714,95.237483 43.15392,94.371754 C 45.136315,93.455838 47.369645,92.916326 49.715896,92.916326 C 52.037053,92.916326 54.270383,93.455838 56.265324,94.371754 C 58.197531,95.237483 60.380674,95.751902 62.626551,95.751902 C 64.884974,95.751902 67.068117,95.237483 68.987777,94.371754 C 70.982718,93.455838 73.216048,92.916326 75.549752,92.916326 C 77.883457,92.916326 80.116787,93.455838 82.099181,94.371754 C 84.043935,95.237483 86.214531,95.751902 88.472954,95.751902 C 90.731378,95.751902 92.889427,95.237483 94.846728,94.371754 C 96.816575,93.455838 99.062452,92.916326 101.38361,92.916326 C 103.72986,92.916326 105.95064,93.455838 107.95813,94.371754 C 109.87779,95.237483 112.04839,95.751902 114.29426,95.751902 L 114.29426,105.28747 z"
   style="fill:#ffffff;fill-opacity:1;fill-rule:nonzero;stroke:none"
   id="path10059" /></svg>

<svg xmlns="http://www.w3.org/2000/svg" width="123.55" height="123.54" viewBox="-0.258 -0.548 123.547 123.539" enable-background="new -0.258 -0.548 123.547 123.539"><path d="m14.56 1.513c-6.775 0-12.296 5.508-12.296 12.296v94.38c0 6.788 5.521 12.296 12.296 12.296h94.38c6.775 0 12.296-5.508 12.296-12.296v-94.38c0-6.788-5.521-12.296-12.296-12.296h-94.38" fill="#fff"/><path d="m108.94 122.99c8.181 0 14.805-6.625 14.805-14.805v-94.38c0-8.181-6.625-14.83-14.805-14.83h-94.38c-8.181 0-14.818 6.65-14.818 14.83v94.38c0 8.181 6.637 14.805 14.818 14.805h94.38"/><g fill="#fff"><path d="m46.34 33.821c5.307 0 9.586-4.304 9.586-9.598 0-5.295-4.278-9.573-9.586-9.573-5.295 0-9.573 4.278-9.573 9.573 0 5.295 4.278 9.598 9.573 9.598"/><path d="m10.984 86.23c2.246 0 4.404-.514 6.336-1.393 1.982-.916 4.228-1.455 6.549-1.455 2.334 0 4.58.54 6.549 1.455 1.945.878 4.115 1.38 6.386 1.38 2.246 0 4.416-.502 6.349-1.38 1.982-.916 4.216-1.455 6.562-1.455 2.321 0 4.554.54 6.549 1.455 1.932.878 4.115 1.38 6.361 1.38 2.258 0 4.442-.502 6.361-1.38 1.995-.916 4.228-1.455 6.562-1.455 2.334 0 4.567.54 6.549 1.455 1.945.878 4.115 1.38 6.374 1.38 2.258 0 4.416-.502 6.374-1.38 1.97-.916 4.216-1.455 6.537-1.455 1.995 0 3.94.376 5.684 1.066 2.848-3.112 4.605-7.252 4.605-11.781 0-9.661-7.817-17.478-17.453-17.478l-1.957.213c-2.146 8.707-10.866 9.07-10.866 9.07l-39.861-.013-3.337-1.957 8.04-13.488 8.795 5.081c5.27 3.413 8-1.368 8-1.368l8.833-14.391c3.827-6.248-4.304-11.254-8.118-4.981l-6.173 10.08-14.68-8.118c-10.175-5.671-14.479 3.726-14.479 3.726l-11.531 19.749c-1.97 4.103-.213 5.872-.213 5.872l-5.696-.013v21.58"/><path d="m114.29 105.29c-2.246 0-4.416-.502-6.336-1.368-2.01-.928-4.228-1.455-6.575-1.455-2.321 0-4.567.527-6.537 1.455-1.957.866-4.115 1.368-6.374 1.368-2.258 0-4.429-.502-6.374-1.368-1.982-.928-4.216-1.455-6.549-1.455-2.334 0-4.567.527-6.562 1.455-1.92.866-4.103 1.368-6.361 1.368-2.246 0-4.429-.502-6.361-1.368-1.995-.928-4.228-1.455-6.549-1.455-2.346 0-4.58.527-6.562 1.455-1.932.866-4.103 1.368-6.349 1.368-2.271 0-4.442-.502-6.386-1.368-1.97-.928-4.216-1.455-6.549-1.455-2.321 0-4.567.527-6.549 1.455-1.932.866-4.103 1.368-6.361 1.368v-9.536c2.258 0 4.429-.514 6.361-1.38 1.982-.916 4.228-1.455 6.549-1.455 2.334 0 4.58.54 6.549 1.455 1.945.866 4.115 1.38 6.386 1.38 2.246 0 4.416-.514 6.349-1.38 1.982-.916 4.216-1.455 6.562-1.455 2.321 0 4.554.54 6.549 1.455 1.932.866 4.115 1.38 6.361 1.38 2.258 0 4.442-.514 6.361-1.38 1.995-.916 4.228-1.455 6.562-1.455 2.334 0 4.567.54 6.549 1.455 1.945.866 4.115 1.38 6.374 1.38 2.258 0 4.416-.514 6.374-1.38 1.97-.916 4.216-1.455 6.537-1.455 2.346 0 4.567.54 6.575 1.455 1.92.866 4.09 1.38 6.336 1.38v9.536"/></g></svg>
